X:89
M:2/4
L:1/8
K:G
|: BcdB | b2d2 | ABcA | a2A2 | Bdgd | e2c2 | BdDF | G2 [G,2G2] :|

